X: 1
T: a Winston Jig
C: Winston Scotty Fitzgerald
O: as taught by Troy MacGillivray
R: jig
Z: 2019 John Chambers <jc:trillian.mit.edu>
M: 6/8
L: 1/8
K: G
D |:\
GFG B2d | gba gfe |\
[1 ded B2G | FGA cBA :|\
[2 def dfa | g3 g :|
|: dc |:\
B3 {B}d3 | c3 {c}e3 |\
[1 ded B2G | FGA cBA :|\
[2 def dfa | g3 g :|
